X: 1
T: McGlynn's
M: 4/4
L: 1/8
R: hornpipe
K: Gmaj
|:A|BAGB AGEG|D2B/c/d gdBG|FGAB cBcd|fdcB ADGA|
BAGB AGEG|D2B/c/d gd^cd|fec/B/A EcBA|GGFG G3:|
|:B|d2^cd gdcd|fec/B/A E3e|d2^cd ed=cB|(3ABA (3GFE D2Bc|
d2^cd gdcd|fec/B/A E3e|dgfe (3ded (3cBA|(3GAG FA G3:|
